X:38
T:White-Haired Logger, The
M:4/4
L:1/8
C:Betsy Hooper
R:Strathspey
K:A
E|"A"A2 B>A "E"G<F E2|e2 e>c B>A B<c|"A"A2 B>A "D"G<F d2|"A"c/d/e "E"E>G
 "A"A2 A:|!
|d|"A"c<e a2   "E"b<g "A"a2|"Bm"f>ed>c "D"B>f e<d|"A"c<e a2 "E"b/a/g/f/
e>d|
"A"c/d/e "E"E/F/G "A"A/B/c "D"d/e/f|!
"A"e<a a2 "E"b<g "A"a2|"Bm"f>ed>c "E"B>AG>F|"A"E<A A2 "D"G<F d2|"A"c/d/e
 "E"E>G "A"A2 A,||
